ios/assets/icons/pl-national-2.svg

<svg xmlns="http://www.w3.org/2000/svg" viewBox="0 0 20 14" height="14" width="20"><title>pl-national-2.svg</title><g><path fill="#d2e4ef" d="M2.9699999999999998,0.59L16.97,0.59A2.5,2.5,0,0,1,19.47,3.09L19.47,11.09A2.5,2.5,0,0,1,16.97,13.59L2.9699999999999998,13.59A2.5,2.5,0,0,1,0.47,11.09L0.47,3.09A2.5,2.5,0,0,1,2.9699999999999998,0.59"></path><path fill="#ffffff" d="M17,1.09a2,2,0,0,1,2,2v8a2,2,0,0,1-2,2H3a2,2,0,0,1-2-2v-8a2,2,0,0,1,2-2H17m0-1H3a3,3,0,0,0-3,3v8a3,3,0,0,0,3,3H17a3,3,0,0,0,3-3v-8a3,3,0,0,0-3-3Z"></path></g></svg>

<?xml version="1.0" encoding="utf-8"?>
<!-- Generator: Adobe Illustrator 17.1.0, SVG Export Plug-In . SVG Version: 6.00 Build 0)  -->
<!DOCTYPE svg PUBLIC "-//W3C//DTD SVG 1.1//EN" "http://www.w3.org/Graphics/SVG/1.1/DTD/svg11.dtd">
<svg version="1.1" id="Layer_1" xmlns="http://www.w3.org/2000/svg" xmlns:xlink="http://www.w3.org/1999/xlink" x="0px" y="0px"
	 width="20px" height="14px" viewBox="0 0 20 14" enable-background="new 0 0 20 14" xml:space="preserve">
<g id="shields">
	<g>
		<path fill="#bf6969" d="M3,13.5c-1.4,0-2.5-1.1-2.5-2.5V3c0-1.4,1.1-2.5,2.5-2.5h14c1.4,0,2.5,1.1,2.5,2.5v8
			c0,1.4-1.1,2.5-2.5,2.5H3z"/>
		<path fill="#FFFFFF" d="M17,1c1.1,0,2,0.9,2,2v8c0,1.1-0.9,2-2,2H3c-1.1,0-2-0.9-2-2V3c0-1.1,0.9-2,2-2L17,1 M17,0H3
			C1.3,0,0,1.3,0,3v8c0,1.7,1.3,3,3,3h14c1.7,0,3-1.3,3-3V3C20,1.3,18.6,0,17,0L17,0z"/>
	</g>
</g>
<g id="not_needed" display="none">
</g>
</svg>
